X:1
T:The Bold Fisherman
M:3/4
L:1/4
K:C
 G,| C C E| G3/4 G/4 G E| F D G| E3/4 D/4 C G,| C C E| G G E/2E/2|\
 F D B,| C2 G| A3/4 A/4 A F| G3/4 G/4 G E| F3/4 E/4 D G| E3/4 D/4 C G|\
 A3/4 A/4 A F| G/2G/2G/2 G/2 E| G3/4 G/4 F D| C2 G/2G/2| G3/4 F/4 E E3/4 E/4|\
 E3/4 D/4 C C3/4 C/4| D3/4 D/4 D3/4 D/4 C3/4 D/4| E3/4 D/4 C G3/4 G/4|\
 G3/4 F/4 E E3/4 E/4| E3/4 D/4 C E3/4 E/4| F D B,| C2||
